X:1
T:Minuets in G major and G minor
T:№ 2. Menuet.
T:J. S. BACH. bearbeitet von E. A. Mac Dowell. 
C:J. S. Bach
%%score { ( 1 3 ) | ( 2 4 5 ) }
L:1/8
Q:1/4=150
M:3/4
K:G
V:1 treble nm="Piano" snm="Pno."
V:3 treble 
V:2 bass 
V:4 bass 
V:5 bass 
V:1
S"^Allegretto, non troppo lento."!p! (d2"_leggiero" .G).A.B.c | ([Gd]2 .G2)!<(! .G2 | %2
 ([Ge]2({!4!dc)B} .!1!c).d.e!<)!.f |!mp! [Gg]2 .G2 .G2 | !4!c2 .d.c.B"_dim.".A | %5
!p! (!3!B2 .!4!c).B.A.G | (!2!F2 .!3!G).A.B.G |!<(!{/!5!B} !4!A6!<)! | %8
!mp! ([DGd]2 .!1!G).!3!A.!4!B.!5!c |"_dolce" (!1!!5![=Fd]2 .[FG]2)!<(! .[FG]2 | %10
 ([EGe]2{!4!dcB} .!1!c).d.e.^f!<)! |!mf! ([Gdg]2 .G2) .G2 | %12
!p! (!4!c2 .d).c"_poco  rit."[Q:1/4=135].B.A | (!3!B2 .!5!c).B.A.G | %14
"_legg.""^a tempo"[Q:1/4=150] (!3!A2 .!5!!2!B).A.G.F | [DG]6 || (!5!b2 .!3!g).a.b.g | %17
 (!5!a2 .!2!d).e.f.d | (g2 .!3!e).f.g.d | .^c2 (Bc) .A2 | %20
!<(! .[Aa].[Bb].[^c^c'].[dd'].[ee'].[ff']!<)! |!<(! ([gg']2 [ff']2 [ee']2)!<)! | %22
!f! ([fd'f']2 .[Ada]2) .[^cg^c']2 |!>(! [dfad']4 z2!>)! |!p! !tenuto!d2 .!1!G.!2!F .!1!G2 | %25
 !tenuto!e2 .G.F .G2 | .!5!d2 .!5!c2 .!4!B2 | .!3!!5![FA].[EG].[DF].[EG] .[FA]2 | %28
!<(! .[Dd].[Ee].[Ff].[Gg].[Aa].[Bb] | ([cc']2 [Bb]2 [Aa]2)!<)! | %30
[Q:1/4=135]"_poco rit." ([Bb][dd'] .[Gg]2) .[Ff]2 |!ff! [GBdg]6!fine! |] %32
[K:Bb][Q:1/4=150]"^Trio."!p! (B2 A2 !3!G2) | (!5!A2 .D2) .D2 | (G2 .G,).A,.B,.C | [^F,D]6 | %36
!>(! (E2 .F).E.D.C | (D2 .E).D.C.B, | (C2 .D).C.B,.C!>)! |!pp!({A,B,)} [^F,A,]4 z2 | %40
"_dolce" (b2({ab)} a2 g2) | (!5!a2 .d2) .d2 | (g2!<(! .G).A.B.c!<)! |!p!!>(! d4 z2!>)! | %44
!pp! (f2!<(! .g).f .e.d | (e2 .f).e!<)! .d!p!.c |!<(! (d2!<)! g2!mp!!>(!{cd} c2)!>)! |!p! [DB]6 || %48
!pp! (d2 .!2!B).c.d.=e |!<(! (f2 g2 a2)!<)! |!mf! (b2 .!3!g).a.b.g | (a2 .!4!g).a f2 | %52
!<(! .[F_ef].[Gg].[Aa].[Bb].[cc'].[dd']!<)! |!<(! ([eae']2 [dd']2 [cc']2)!<)! | %54
!f! ([fbf']2 .[Bgb]2) .[Aea]2 |!ff!!>(! [Bdb]4 z2!>)! |!f! !tenuto![dd']2 .!3!g.^f .g2 | %57
 !tenuto![ee']2 .g.^f .g2 | .[dd']g.[cc']^f.[Bb]g | .[d^fa]2!>(! z2 z2!>)!!mp! | %60
!<(! .!1!D.=E.^F.!1!G.A.B!<)! |!mf! (c2 B2 A2) |!f!!>(! (Bc/d/ .G2) .^F2 |!mf! [B,DG]6!>)!!D.S.! |] %64
V:2
 .[G,B,D]2 z2 .A,2 | (B,2 .G,).A,.^A,.B, | .!1!C2 (!2!E2 !3!C2) | (!4!B,2 .!1!C).B,.A,.G, | %4
 z2 D4- | D2 D4 | .D2 .B,2 .G,2 | (!1!D2 .!4!D,).!5![C,C].[B,,B,].[A,,A,] | ([B,,B,]4 [A,,A,]2) | %9
 ([G,,G,]2 .!1!B,).A,._A,.!4!G, | .[C,C]2 .[E,E]2 .[C,C]2 | ([B,,B,]2 .!2!C).B,.A,.G, | %12
 (!1!E4 ^D2) | (E4 !3!B,2) | .!2!C2 .D2 .!5![D,C]2 | ([G,B,]4 G,,2) || %16
"_poco marc." (!2!E2 !1!G2 !2!F2 | !1!E2 D2 A,2) | (!1!!5!B,2 !2!!4!^C2 !1!!5!D2 | %19
 !2!E2 !1!D2 ^C2) | .[A,^CE]2 z2 z2 | .[E,,E,].[F,,F,].[G,,G,].[A,,A,].[B,,B,].[^C,^C] | %22
 .[D,D]2 .[F,,F,]2 .[A,,A,]2 | .[D,,D,]2 (D,2 !1!=C2) | z2 !1!D4 | z2 !1!E4 | %26
 .[B,D]2 .[A,D]2 .[G,D]2 | .D2 z2 z2 | ([D,,D,]2 [E,,E,]2 [F,,F,]2) | %29
 .[E,,E,].[F,,F,].[G,,G,].[A,,A,].[B,,B,].[C,C] | ([D,D]2 .[B,,B,]2) .[D,D]2 | %31
 x2 !tenuto!D2 !tenuto!G,2 |][K:Bb] D,6- | D,2 .!1!D,.!3!^D,.=E,.F, | (!1!=D,2 !2!^C,2 !1!=C,2) | %35
 (B,,2 A,,2) z2 | (E,4 ^F,2) | (G,4 E,2) | (^F,2 E,2 (D,2) | [D,,D,]2) .D.C.B,.A, | D6- | %41
 D2 .!1!D.!3!^D.=E.F | (=D2 !3!^C2 !1!=C2 | [D,=B,]2) .!1!F.D._D.C | (D4 F2) | E4 E2 | %46
 D2- .!1!D.C.!1!B,.!2!A, | B,2 B,,4 || =E6 | (C2 .G,).B,.!5!C.!2!D | =E6 | C4 z2 | %52
 ([A,,A,]2 [G,,G,]2 [F,,F,]2) | .[F,,,F,,].[G,,,G,,].[A,,,A,,].[B,,,B,,].[C,,C,].[^C,,^C,] | %54
 ([D,,D,]2 .[E,,E,]2) .[F,,F,]2 | .[B,,,B,,]2 (D2 C2) | .[=B,DG]2[I:staff -1] .!2!G.^F .G2 | %57
[I:staff +1] .[CEG]2[I:staff -1] .G.^F .G2 |[I:staff +1] .[B,DG]2 .[A,D^F]2 .[G,DG]2 | %59
 ([D^FA]2 .A,).G,.^F,.=E, | D,4 z2 |!<(! .!2!G,.!1!A,.!2!B,.!1!C[I:staff -1].D.E!<)! | %62
[I:staff +1] (G,2 A,2) .A,2 | G,2!f! G,,4 |] %64
V:3
 x6 | x6 | x6 | x6 | F6 | G6 | F2 D2 D2 | F6 | x4 [DF]2 | x6 | x6 | x6 | F6 | G4 E2 | E2 F2 D2 | %15
 x6 || B6 | A6 | G6 | G2 G2 G2 | x6 | x6 | x6 | x6 | x6 | x6 | d!1!Gc!2!FB!1!G | x6 | x6 | x6 | %30
 x6 | x6 |][K:Bb] B,6 | A,6 | G,6 | x6 | x6 | x6 | x6 | x6 | B6 | A6 | G6 | [FG]4 x2 | _A4 =B2 | %45
 c4 =A2 | B2 G2 E2 | x6 || G6 | c2 B2 A2 | c4 B2 | A4 z2 | x6 | x6 | x6 | x6 | x6 | x6 | x6 | x6 | %60
 x6 | x6 | D2 E2 D2 | x6 |] %64
V:4
 x6 | x6 | x6 | x6 | !3!A,6 | G,6 | x6 | x6 | x6 | x6 | x6 | x6 | (!4!A,4 !2!!5!F,2) | (E,4 B,2) | %14
 x6 | x6 || (G,6 | F,6 | E,2 G,2 E,2 | A,4 A,,2) | x6 | x6 | x6 | x6 | !3!B,4 B,2 | !2!C4 C2 | x6 | %27
 x6 | x6 | x6 | x6 | [G,B,D]2 !tenuto![D,,D,]2 !tenuto![G,,,G,,]2 |][K:Bb] (G,,6 | F,,6) | (E,,6 | %35
 D,,2) .D,.C,.B,,.A,, | (G,,4 A,,2) | (B,,4 G,,2) | A,,2 !2!!5!^F,,2 G,,2 | x6 | (G,6 | =F,6) | %42
 E,6 | x6 | (=B,4 G,2) | C2 =A,2 F,2 | B,2 E,2 F,2 | x6 || (B,2 C2 B,2 | A,2 G,2 !1!F,2) | %50
 G,2 =E,2 C,2 | F,4 x2 | x6 | x6 | x6 | x6 | x6 | x6 | x6 | x6 | x6 | (!4!_E,2 D,2 C,2) | %62
 (B,,2 C,2) .D,2 | x6 |] %64
V:5
 x6 | x6 | x6 | x6 | x6 | x6 | x6 | x6 | x6 | x6 | x6 | x6 | x6 | x6 | x6 | x6 || x6 | x6 | x6 | %19
 x6 | x6 | x6 | x6 | x6 | x6 | x6 | x6 | x6 | x6 | x6 | x6 | x6 |][K:Bb] x6 | x6 | x6 | x6 | x6 | %37
 x6 | x6 | x6 | x6 | x6 | x6 | x6 | x6 | x6 | x6 | x6 || x6 | x6 | x6 | x6 | x6 | x6 | x6 | x6 | %56
 x6 | x6 | x6 | x6 | x6 | x4 ^F,2 | x6 | x6 |] %64

